flaticon/interaction/music-player-8.svg

<svg xmlns="http://www.w3.org/2000/svg" width="32" height="32" viewBox="0 0 24 24">
    <path d="M 23.886719 23.101562 L 21.460938 20.5625 C 22.171875 19.78125 22.605469 18.75 22.605469 17.613281 C 22.605469 15.195312 20.636719 13.222656 18.214844 13.222656 C 15.796875 13.222656 13.828125 15.191406 13.828125 17.613281 C 13.828125 20.035156 15.796875 22.003906 18.214844 22.003906 C 19.210938 22.003906 20.121094 21.667969 20.859375 21.109375 L 23.300781 23.664062 C 23.378906 23.746094 23.488281 23.789062 23.59375 23.789062 C 23.695312 23.789062 23.796875 23.75 23.875 23.675781 C 24.035156 23.519531 24.042969 23.265625 23.886719 23.101562 Z M 14.640625 17.613281 C 14.640625 15.640625 16.246094 14.035156 18.214844 14.035156 C 20.1875 14.035156 21.792969 15.640625 21.792969 17.613281 C 21.792969 19.585938 20.1875 21.191406 18.214844 21.191406 C 16.246094 21.191406 14.640625 19.585938 14.640625 17.613281 Z M 14.640625 17.613281"/>
    <path d="M 11.792969 19.324219 L 0.8125 19.324219 L 0.8125 1.023438 L 22.773438 1.023438 L 22.773438 12.816406 C 22.773438 13.042969 22.953125 13.222656 23.179688 13.222656 C 23.402344 13.222656 23.585938 13.042969 23.585938 12.816406 L 23.585938 0.617188 C 23.585938 0.390625 23.402344 0.210938 23.179688 0.210938 L 0.40625 0.210938 C 0.183594 0.210938 0 0.390625 0 0.617188 L 0 19.730469 C 0 19.953125 0.183594 20.136719 0.40625 20.136719 L 11.792969 20.136719 C 12.019531 20.136719 12.199219 19.953125 12.199219 19.730469 C 12.199219 19.503906 12.019531 19.324219 11.792969 19.324219 Z M 11.792969 19.324219"/>
    <path d="M 12.613281 12.707031 C 12.613281 11.867188 13.402344 11.1875 14.375 11.1875 C 14.828125 11.1875 15.265625 11.339844 15.597656 11.621094 C 15.769531 11.769531 16.027344 11.746094 16.171875 11.574219 C 16.246094 11.480469 16.273438 11.367188 16.257812 11.253906 C 16.261719 11.242188 16.265625 11.230469 16.265625 11.21875 L 16.265625 4.304688 C 16.265625 4.1875 16.214844 4.078125 16.128906 4 C 16.039062 3.921875 15.925781 3.886719 15.804688 3.902344 L 8.488281 4.867188 C 8.285156 4.890625 8.132812 5.066406 8.132812 5.269531 L 8.132812 13.171875 C 7.65625 12.757812 7.011719 12.5 6.304688 12.5 C 4.847656 12.5 3.660156 13.574219 3.660156 14.894531 C 3.660156 16.214844 4.847656 17.289062 6.304688 17.289062 C 7.761719 17.289062 8.945312 16.214844 8.945312 14.894531 L 8.945312 7.660156 L 15.453125 6.804688 L 15.453125 10.601562 C 15.117188 10.457031 14.75 10.375 14.375 10.375 C 12.953125 10.375 11.800781 11.421875 11.800781 12.707031 C 11.800781 13.335938 12.074219 13.929688 12.570312 14.371094 C 12.648438 14.4375 12.746094 14.472656 12.839844 14.472656 C 12.953125 14.472656 13.0625 14.425781 13.144531 14.335938 C 13.292969 14.167969 13.277344 13.910156 13.109375 13.761719 C 12.789062 13.476562 12.613281 13.101562 12.613281 12.707031 Z M 6.304688 16.476562 C 5.292969 16.476562 4.472656 15.769531 4.472656 14.894531 C 4.472656 14.023438 5.292969 13.3125 6.304688 13.3125 C 7.3125 13.3125 8.132812 14.023438 8.132812 14.894531 C 8.132812 15.769531 7.3125 16.476562 6.304688 16.476562 Z M 8.945312 6.839844 L 8.945312 5.625 L 15.453125 4.769531 L 15.453125 5.980469 Z M 8.945312 6.839844"/>
</svg>

<svg xmlns="http://www.w3.org/2000/svg" width="32" height="32" viewBox="0 0 24 24">
    <path d="M23.887 23.102l-2.426-2.54a4.363 4.363 0 0 0 1.144-2.949 4.397 4.397 0 0 0-4.39-4.39 4.394 4.394 0 0 0-4.387 4.39 4.394 4.394 0 0 0 4.387 4.39 4.36 4.36 0 0 0 2.644-.894l2.442 2.555a.408.408 0 0 0 .574.012.407.407 0 0 0 .012-.574zm-9.246-5.489a3.582 3.582 0 0 1 3.574-3.578 3.583 3.583 0 0 1 3.578 3.578 3.583 3.583 0 0 1-3.578 3.578 3.582 3.582 0 0 1-3.574-3.578zm0 0"/>
    <path d="M11.793 19.324H.813v-18.3h21.96v11.792a.406.406 0 1 0 .813 0V.617a.406.406 0 0 0-.406-.406H.406A.406.406 0 0 0 0 .617V19.73c0 .223.184.407.406.407h11.387a.406.406 0 1 0 0-.813zm0 0"/>
    <path d="M12.613 12.707c0-.84.79-1.52 1.762-1.52.453 0 .89.153 1.223.434.172.149.43.125.574-.047a.416.416 0 0 0 .086-.32.114.114 0 0 0 .008-.035V4.305a.405.405 0 0 0-.46-.402l-7.318.964a.405.405 0 0 0-.355.403v7.902a2.787 2.787 0 0 0-1.828-.672c-1.457 0-2.645 1.074-2.645 2.395 0 1.32 1.188 2.394 2.645 2.394s2.64-1.074 2.64-2.394V7.66l6.508-.855v3.797a2.734 2.734 0 0 0-1.078-.227c-1.422 0-2.574 1.047-2.574 2.332 0 .629.273 1.223.77 1.664a.41.41 0 0 0 .574-.035.407.407 0 0 0-.036-.574 1.408 1.408 0 0 1-.496-1.055zm-6.308 3.77c-1.012 0-1.832-.707-1.832-1.582 0-.872.82-1.582 1.832-1.582 1.008 0 1.828.71 1.828 1.582 0 .875-.82 1.582-1.828 1.582zm2.64-9.637V5.625l6.508-.855v1.21zm0 0"/>
</svg>
